icons/tokens/0x875773784Af8135eA0ef43b5a374AaD105c5D39e/logo.svg

<svg width="32" height="32" viewBox="0 0 32 32" fill="none" xmlns="http://www.w3.org/2000/svg">
<path fill-rule="evenodd" clip-rule="evenodd" d="M32 16C32 7.17152 24.8285 0 16 0C7.17152 0 0 7.17152 0 16C0 24.8285 7.17152 32 16 32C24.8285 32 32 24.8285 32 16Z" fill="white"/>
<path fill-rule="evenodd" clip-rule="evenodd" d="M14.7434 22.8205V4.67264L7.19587 9.02944L6.89667 9.20256V22.793L6.94595 22.8205H14.7434ZM17.2567 9.17888V27.3274L24.8042 22.9699L25.1034 22.7968V9.20704L25.0541 9.17888H17.2567Z" fill="url(#paint0_linear)"/>
<defs>
<linearGradient id="paint0_linear" x1="10.4" y1="7.2" x2="21.92" y2="24.64" gradientUnits="userSpaceOnUse">
<stop stop-color="#0C59C3"/>
<stop offset="1" stop-color="#5091EF"/>
</linearGradient>
</defs>
</svg>

<svg width="32" height="32" fill="none" xmlns="http://www.w3.org/2000/svg"><path fill-rule="evenodd" clip-rule="evenodd" d="M32 16c0-8.828-7.172-16-16-16S0 7.172 0 16s7.172 16 16 16 16-7.172 16-16z" fill="#fff"/><path fill-rule="evenodd" clip-rule="evenodd" d="M14.743 22.82V4.674L7.196 9.029l-.3.174v13.59l.05.027h7.797zM17.257 9.18v18.148l7.547-4.357.3-.173V9.207l-.05-.028h-7.797z" fill="url(#paint0_linear)"/><defs><linearGradient id="paint0_linear" x1="10.4" y1="7.2" x2="21.92" y2="24.64" gradientUnits="userSpaceOnUse"><stop stop-color="#0C59C3"/><stop offset="1" stop-color="#5091EF"/></linearGradient></defs></svg>
